X:61
T:Scholar, The
R:reel
Z:Transcribed by Dave Marshall
M:C|
K:Dmix
|: dfaf gfeg|fdAG FGAc|BGFG EGAg|fde^c dcBA|
dfaf gfeg|fdAG FGAc|BGFG EGAg| fde^c d4 :|
|:~a3f dfaf|dfaf bagf|~g3e cege|cege agfg|
~a3f dfaf|dfaf bagf|~g3f gbag| fde^c d4:|
